!!!COM: Palestrina, Giovanni Perluigi da
!!!OPR: Missa In duplicibus minoribus (II)
!!!OMD: Gloria
!!!OTL: Quoniam
**kern	**kern	**kern	**kern	**kern
*Ibass	*Itenor	*Itenor	*Icalto	*Icant
!Bassus	!Tenor 2	!Tenor 1	!Altus	!Cantus
*clefF4	*clefGv2	*clefGv2	*clefG2	*clefG2
*k[]	*k[]	*k[]	*k[]	*k[]
*E:phr	*E:phr	*E:phr	*E:phr	*E:phr
*M4/2	*M4/2	*M4/2	*M4/2	*M4/2
=82	=82	=82	=82	=82
0r	1r	0r	1r	1b
.	1A	.	1e	[1cc
=83	=83	=83	=83	=83
0r	1.d	0r	1.f	2cc]
.	.	.	.	2b
.	.	.	.	2a
.	2c	.	2e	[2a
=84	=84	=84	=84	=84
1r	1.B	0r	1d	2a]
.	.	.	.	4g#
.	.	.	.	4f#
1E	.	.	1e	1g#
.	[2c	.	.	.
=85	=85	=85	=85	=85
1.F	2c]	1A	1c	1a
.	1A	.	.	.
.	.	1c	1r	2f
2E	2G	.	.	[2g
=86	=86	=86	=86	=86
1D	1d	2B	1r	4g]
.	.	.	.	4f
.	.	1A	.	2f
1E	2.B	.	2r	1e
.	.	2G#	2e	.
.	4c	.	.	.
=87	=87	=87	=87	=87
1D	1d	2A	1f	2r
.	.	2F	.	2a
1C	2r	2G	2e	1cc
.	2G	2E	[2g	.
=88	=88	=88	=88	=88
0D	1d	2r	2g]	2b
.	.	2A	4f	4a
.	.	.	4e	4g
.	[1A	1d	[1f	2a
.	.	.	.	[2dd
=89	=89	=89	=89	=89
1D	2A]	2d	1f]	4dd]
.	.	.	.	4cc
.	1B	4d	.	4b
.	.	4c	.	4a
1E	.	4B	1e	4g
.	.	4A	.	4f
.	2B	4G	.	4e
.	.	4F	.	4f
=90	=90	=90	=90	=90
0E	2.B	4E	[0e	4g
.	.	4F	.	4a
.	.	4G	.	1b
.	4A	4A	.	.
.	2G#	2B	.	.
.	2A	[2A	.	2cc
=91	=91	=91	=91	=91
[0E	[0B	2A]	0e]	[0b
.	.	4G#	.	.
.	.	4F#	.	.
.	.	1G#	.	.
=92	=92	=92	=92	=92
1E_	1B_	[0G#	[0e	1b_
1E_	1B_	.	.	1b_
=93	=93	=93	=93	=93
0E]	0B]	0G#]	0e]	0b]
*-	*-	*-	*-	*-
!!!CDT: 1525/^1526/-1594/2/2
!!!OCY: Italia
!!!AGN: Mass (Paraphrase)
!!!AST: renaissance, vocal
!!!ASW: Gregorian Mass
!!!PWK: Masses, Book Mantuan I
!!!RNB: Cadence finals: A
!!!YOR: Le Opere Complete, v. 18, p. 1
!!!YOO: Rome, Italy: Fratelli Scalera
!!!END: 1992//
!!!EED: John Miller
!!!YEC: Copyright 2000, John Miller
!!!YEN: United States of America
!!!YEM: Rights to all derivative electronic formats reserved.
!!!YEM: Refer to licensing agreement for further details.
!!!YEM: This file must be accompanied by the licensing agreement.
!!!YEM: A copy of the licensing agreement may be found at http://www.music-cog.ohio-state.edu/HumdrumDatabases/Palestrina/license.txt
!!!EMD: converted to Humdrum by Bret Aarden
